src/images/js-logo_white.svg

<?xml version="1.0" encoding="UTF-8" standalone="no"?>
<svg
   width="100%"
   height="100%"
   viewBox="0 0 50 50"
   version="1.1"
   xml:space="preserve"
   style="fill-rule:evenodd;clip-rule:evenodd;stroke-linejoin:round;stroke-miterlimit:2;"
   id="svg375"
   sodipodi:docname="js-logo_white.svg"
   inkscape:version="1.2.1 (0f2f062aeb, 2022-09-21, custom)"
   xmlns:inkscape="http://www.inkscape.org/namespaces/inkscape"
   xmlns:sodipodi="http://sodipodi.sourceforge.net/DTD/sodipodi-0.dtd"
   xmlns="http://www.w3.org/2000/svg"
   xmlns:svg="http://www.w3.org/2000/svg"><defs
   id="defs379">
        
    
            
            
        
                
                
            
                    
                
                    
                </defs><sodipodi:namedview
   id="namedview377"
   pagecolor="#505050"
   bordercolor="#eeeeee"
   borderopacity="1"
   inkscape:pageshadow="0"
   inkscape:pageopacity="0"
   inkscape:pagecheckerboard="0"
   showgrid="false"
   inkscape:zoom="11.285424"
   inkscape:cx="22.196773"
   inkscape:cy="25.165204"
   inkscape:window-width="1920"
   inkscape:window-height="1016"
   inkscape:window-x="0"
   inkscape:window-y="0"
   inkscape:window-maximized="1"
   inkscape:current-layer="svg375"
   inkscape:showpageshadow="0"
   inkscape:deskcolor="#505050" />
    <path
   id="rect362"
   style="fill:#ffffff;"
   d="M 0.54882812 0.1953125 L 0.54882812 49.082031 L 49.435547 49.082031 L 49.435547 0.1953125 L 0.54882812 0.1953125 z M 37.757812 22.380859 C 40.678602 22.380859 42.777854 23.39699 44.291016 26.058594 L 40.714844 28.355469 C 39.927225 26.943189 39.076979 26.386719 37.757812 26.386719 C 36.412264 26.386719 35.558594 27.240389 35.558594 28.355469 C 35.558594 29.733604 36.411823 30.290956 38.382812 31.144531 L 39.53125 31.636719 C 43.43443 33.310502 45.638672 35.017082 45.638672 38.853516 C 45.638672 42.989476 42.390679 45.255859 38.027344 45.255859 C 33.761005 45.255859 31.004903 43.221347 29.65625 40.556641 L 33.388672 38.388672 C 34.373391 39.996497 35.65406 41.177734 37.919922 41.177734 C 39.823401 41.177734 41.039062 40.226615 41.039062 38.912109 C 41.039062 37.336875 39.790458 36.77971 37.695312 35.863281 L 36.546875 35.369141 C 33.231888 33.956861 31.029297 32.187478 31.029297 28.447266 C 31.029297 25.001926 33.655207 22.380859 37.757812 22.380859 z M 22.578125 22.642578 L 27.171875 22.642578 L 27.171875 38.324219 C 27.171875 43.080961 24.383291 45.246094 20.3125 45.246094 C 16.634355 45.246094 14.505143 43.343407 13.421875 41.050781 L 17.160156 38.787109 C 17.881818 40.067472 18.538844 41.148438 20.117188 41.148438 C 21.626469 41.148438 22.578125 40.557836 22.578125 38.261719 L 22.578125 22.642578 z " />
</svg>

<svg xmlns="http://www.w3.org/2000/svg" xml:space="preserve" style="fill-rule:evenodd;clip-rule:evenodd;stroke-linejoin:round;stroke-miterlimit:2" viewBox="0 0 50 50"><path d="M.549.195v48.887h48.887V.195H.549zm37.209 22.186c2.92 0 5.02 1.016 6.533 3.678l-3.576 2.296c-.788-1.412-1.638-1.968-2.957-1.968-1.346 0-2.2.853-2.2 1.968 0 1.379.854 1.936 2.825 2.79l1.148.492c3.903 1.674 6.108 3.38 6.108 7.217 0 4.135-3.248 6.402-7.612 6.402-4.266 0-7.022-2.035-8.37-4.7l3.732-2.167c.984 1.607 2.265 2.789 4.53 2.789 1.904 0 3.12-.951 3.12-2.266 0-1.575-1.249-2.132-3.344-3.049l-1.148-.494c-3.315-1.412-5.518-3.182-5.518-6.922 0-3.445 2.626-6.066 6.729-6.066zm-15.18.262h4.594v15.681c0 4.757-2.789 6.922-6.86 6.922-3.678 0-5.807-1.903-6.89-4.195l3.738-2.264c.722 1.28 1.379 2.361 2.957 2.361 1.51 0 2.461-.59 2.461-2.886v-15.62z" style="fill:#fff"/></svg>
